openmetadata-ui/src/main/resources/ui/src/assets/svg/service.svg

<svg width="16" height="16" viewBox="0 0 16 16" fill="none" xmlns="http://www.w3.org/2000/svg">
<path d="M0.530427 1.80848L1.48317 3.47568C1.51531 3.53202 1.5691 3.57278 1.632 3.58855L2.52086 3.81077L5.56946 6.85937L5.90631 6.52261L2.80999 3.4264C2.77952 3.39583 2.74131 3.37417 2.69948 3.36369L1.8454 3.14941L1.03423 1.72911L1.72968 1.03366L3.15057 1.84561L3.36495 2.69969C3.37533 2.74162 3.39708 2.77993 3.42755 2.8104L6.52387 5.90672L6.86062 5.56987L3.81202 2.52127L3.58981 1.6329C3.57403 1.5699 3.53327 1.51601 3.47693 1.48378L1.80963 0.531131C1.71665 0.478223 1.59967 0.493899 1.52383 0.569441L0.571186 1.52218C0.494567 1.59753 0.477911 1.71471 0.530427 1.80848V1.80848Z" fill="#37352F" stroke="#37352F" stroke-width="0.4" stroke-linejoin="round"/>
<path d="M4.03255 11.6491C4.00023 11.5953 3.9422 11.5625 3.87946 11.5625H2.80803C2.74537 11.5625 2.68726 11.5953 2.65501 11.6491L2.11926 12.542C2.08525 12.5985 2.08525 12.6693 2.11926 12.7259L2.65501 13.6187C2.68726 13.6724 2.74537 13.7054 2.80803 13.7054H3.87946C3.9422 13.7054 4.00023 13.6724 4.03255 13.6187L4.56823 12.7259C4.60224 12.6693 4.60224 12.5985 4.56823 12.542L4.03255 11.6491ZM3.77845 13.3482H2.90911L2.48054 12.6339L2.90911 11.9196H3.77845L4.20702 12.6339L3.77845 13.3482Z" fill="#37352F" stroke="#37352F" stroke-width="0.4" stroke-linejoin="round"/>
<path fill-rule="evenodd" clip-rule="evenodd" d="M15.1474 3.73506C15.1421 5.30811 13.8625 6.57909 12.2895 6.5738C12.102 6.57321 11.9151 6.55381 11.7315 6.51589L10.4828 7.76463L10.1459 8.10138L8.09884 10.1454L7.76414 10.4831L6.15826 12.0839C6.19618 12.2675 6.21558 12.4544 6.21616 12.642C6.21616 14.2204 4.93656 15.5 3.35813 15.5C1.7796 15.5 0.5 14.2204 0.5 12.642C0.5 11.0634 1.7796 9.78384 3.35813 9.78384C3.54556 9.78452 3.73251 9.80383 3.91612 9.84174L9.48935 4.27375C9.45133 4.09014 9.43203 3.9032 9.43144 3.71566C9.43066 3.47689 9.45996 3.239 9.51865 3.00757C9.90497 1.48215 11.4547 0.558699 12.9802 0.945028C13.0225 0.955414 13.0611 0.977165 13.0917 1.00783C13.1848 1.10081 13.1849 1.2516 13.0919 1.34468L11.6093 2.82759L12.0016 4.00362L13.1779 4.39564L14.6606 2.914C14.6911 2.88353 14.7293 2.86188 14.7713 2.8514C14.8989 2.81965 15.0282 2.89735 15.0599 3.02501C15.1188 3.25712 15.1482 3.4956 15.1474 3.73506ZM5.72862 11.84L11.4888 6.08606L11.4875 6.08596C11.5467 6.02678 11.6326 6.00307 11.7139 6.02335C11.9098 6.07352 12.1115 6.0984 12.3138 6.09742C13.6225 6.09066 14.6779 5.02436 14.6712 3.71566C14.6712 3.67089 14.6698 3.62592 14.6669 3.58045L13.4105 4.83683C13.3468 4.90052 13.2524 4.92276 13.167 4.89425L11.7379 4.41788C11.6667 4.39426 11.6109 4.33842 11.5871 4.26738L11.1108 2.83827C11.0823 2.75273 11.1046 2.65838 11.1684 2.59469L12.4248 1.33782C12.1779 1.32244 11.93 1.34596 11.6903 1.40719C10.4221 1.7318 9.65709 3.02296 9.98159 4.29119C10.002 4.37232 9.97816 4.45824 9.91899 4.51742L4.16008 10.2715C4.10071 10.3304 4.01498 10.3542 3.93375 10.3343C3.54556 10.2355 3.13885 10.2355 2.75066 10.3343C1.46734 10.661 0.69194 11.9662 1.0186 13.2494C1.34536 14.5328 2.65053 15.3082 3.93375 14.9814C5.21708 14.6547 5.99248 13.3496 5.66572 12.0663C5.64554 11.9851 5.66935 11.8992 5.72862 11.84Z" fill="#37352F" stroke="#37352F" stroke-width="0.4" stroke-linejoin="round"/>
<path fill-rule="evenodd" clip-rule="evenodd" d="M10.5751 8.67074L10.8888 8.35715L11.3974 8.86572C11.484 8.9523 11.484 9.09272 11.3974 9.17931L11.286 9.29071C11.1891 9.38779 11.1893 9.54509 11.2864 9.64199C11.3838 9.7387 11.5409 9.7387 11.6382 9.64199L11.7491 9.53113C11.8357 9.44454 11.9761 9.44454 12.0627 9.53113L14.97 12.4384L14.9814 12.4499C15.6773 13.1521 15.6722 14.2855 14.97 14.9814C14.2678 15.6773 13.1344 15.6722 12.4385 14.9699L9.53116 12.0626C9.44457 11.976 9.44457 11.8356 9.53116 11.749L9.64247 11.6377C9.73937 11.5405 9.73919 11.3832 9.64201 11.2863C9.54475 11.1897 9.38755 11.1897 9.29029 11.2863L9.17943 11.3973C9.09275 11.4838 8.95243 11.4838 8.86575 11.3973L8.35718 10.8887L8.66885 10.5742L9.02368 10.929C9.28089 10.7129 9.65625 10.7126 9.91373 10.9285C10.2067 11.174 10.2452 11.6107 9.99958 11.9036L12.7521 14.6563C12.7792 14.6834 12.8077 14.7087 12.8369 14.7331L13.2326 14.9647C13.3834 15.0214 13.5431 15.0505 13.7043 15.0508C13.8665 15.0509 14.0274 15.0218 14.1791 14.9647C14.8744 14.7033 15.2261 13.9278 14.9647 13.2324L14.7332 12.8367C14.7087 12.8077 14.6835 12.7792 14.6564 12.7521L11.9059 9.99928C11.6486 10.2155 11.2734 10.2157 11.0159 9.99992C10.7229 9.75439 10.6844 9.31772 10.93 9.02475L10.5751 8.67074Z" fill="#37352F"/>
<path d="M14.9814 12.4499C15.6773 13.1521 15.6722 14.2855 14.97 14.9814C14.2678 15.6773 13.1344 15.6722 12.4385 14.9699L9.53116 12.0626C9.44457 11.976 9.44457 11.8356 9.53116 11.749L9.64247 11.6377C9.73937 11.5405 9.73919 11.3832 9.64201 11.2863C9.54475 11.1897 9.38755 11.1897 9.29029 11.2863L9.17943 11.3973C9.09275 11.4838 8.95243 11.4838 8.86575 11.3973L8.35718 10.8887L8.66885 10.5742L9.02368 10.929C9.28089 10.7129 9.65625 10.7126 9.91373 10.9285C10.2067 11.174 10.2452 11.6107 9.99958 11.9036L12.7521 14.6563C12.7792 14.6834 12.8077 14.7087 12.8369 14.7331L13.2326 14.9647C13.3834 15.0214 13.5431 15.0505 13.7043 15.0508C13.8665 15.0509 14.0274 15.0218 14.1791 14.9647C14.8744 14.7033 15.2261 13.9278 14.9647 13.2324L14.7332 12.8367C14.7087 12.8077 14.6835 12.7792 14.6564 12.7521L11.9059 9.99928C11.6486 10.2155 11.2734 10.2157 11.0159 9.99992C10.7229 9.75439 10.6844 9.31772 10.93 9.02475L10.5751 8.67074L10.8888 8.35715L11.3974 8.86572C11.484 8.9523 11.484 9.09272 11.3974 9.17931L11.286 9.29071C11.1891 9.38779 11.1893 9.54509 11.2864 9.64199C11.3838 9.7387 11.5409 9.7387 11.6382 9.64199L11.7491 9.53113C11.8357 9.44454 11.9761 9.44454 12.0627 9.53113L14.97 12.4384M14.9814 12.4499C14.9777 12.4461 14.9739 12.4422 14.97 12.4384M14.9814 12.4499L14.97 12.4384" stroke="#37352F" stroke-width="0.4" stroke-linejoin="round"/>
<path d="M13.8929 13.6273L13.6273 13.8929L11.75 12.0155L12.0154 11.75L13.8929 13.6273Z" fill="#37352F" stroke="#37352F" stroke-width="0.4" stroke-linejoin="round"/>
</svg>

<svg xmlns="http://www.w3.org/2000/svg" width="16" height="16" fill="none"><path fill="#37352F" stroke="#37352F" stroke-linejoin="round" stroke-width=".4" d="m.53 1.808.953 1.668a.238.238 0 0 0 .149.113l.889.222 3.048 3.048.337-.336L2.81 3.426a.238.238 0 0 0-.11-.062l-.855-.215-.81-1.42.695-.695 1.42.812.215.854c.01.042.032.08.063.11l3.096 3.097.337-.337L3.812 2.52l-.222-.888a.239.239 0 0 0-.113-.15L1.81.532a.238.238 0 0 0-.286.038l-.953.953a.238.238 0 0 0-.04.286ZM4.033 11.65a.178.178 0 0 0-.154-.088H2.808a.178.178 0 0 0-.153.087l-.536.893a.178.178 0 0 0 0 .184l.536.893c.032.053.09.086.153.086h1.071c.063 0 .121-.033.154-.086l.535-.893a.178.178 0 0 0 0-.184l-.535-.893Zm-.255 1.698H2.91l-.428-.714.428-.714h.87l.428.714-.429.714Z"/><path fill="#37352F" fill-rule="evenodd" stroke="#37352F" stroke-linejoin="round" stroke-width=".4" d="M15.147 3.735a2.848 2.848 0 0 1-3.415 2.78l-1.25 1.25-.336.336-2.047 2.044-.335.338-1.606 1.6c.038.184.058.371.058.559a2.858 2.858 0 1 1-2.858-2.858c.188 0 .375.02.558.058L9.49 4.274a2.795 2.795 0 0 1 .03-1.266A2.85 2.85 0 0 1 12.98.945a.238.238 0 0 1 .112.4l-1.483 1.483.393 1.176 1.176.392 1.483-1.482a.238.238 0 0 1 .399.111c.059.232.088.47.087.71ZM5.73 11.84l5.76-5.754h-.002a.238.238 0 0 1 .227-.063 2.37 2.37 0 0 0 2.953-2.443L13.41 4.837a.238.238 0 0 1-.244.057l-1.43-.476a.238.238 0 0 1-.15-.15l-.476-1.43a.238.238 0 0 1 .057-.243l1.257-1.257A2.37 2.37 0 0 0 9.982 4.29a.238.238 0 0 1-.063.226L4.16 10.271a.24.24 0 0 1-.226.063 2.398 2.398 0 1 0 1.732 1.732.239.239 0 0 1 .063-.226Z" clip-rule="evenodd"/><path fill="#37352F" fill-rule="evenodd" d="m10.575 8.67.314-.313.508.509a.222.222 0 0 1 0 .313l-.111.112a.248.248 0 1 0 .352.351l.111-.11a.222.222 0 0 1 .314 0l2.907 2.906.011.012a1.79 1.79 0 1 1-2.543 2.52l-2.907-2.907a.222.222 0 0 1 0-.314l.111-.111a.248.248 0 0 0-.352-.352l-.11.111a.222.222 0 0 1-.314 0l-.509-.508.312-.315.355.355a.692.692 0 0 1 .976.975l2.752 2.752c.027.027.056.053.085.077l.396.232a1.347 1.347 0 0 0 .946 0 1.345 1.345 0 0 0 .786-1.733l-.232-.395a1.36 1.36 0 0 0-.077-.085L11.906 10a.692.692 0 0 1-.976-.974l-.355-.354Z" clip-rule="evenodd"/><path stroke="#37352F" stroke-linejoin="round" stroke-width=".4" d="M14.981 12.45a1.79 1.79 0 1 1-2.543 2.52l-2.907-2.907a.222.222 0 0 1 0-.314l.111-.111a.248.248 0 0 0-.352-.352l-.11.111a.222.222 0 0 1-.314 0l-.509-.508.312-.315.355.355a.692.692 0 0 1 .976.975l2.752 2.752c.027.027.056.053.085.077l.396.232a1.347 1.347 0 0 0 .946 0 1.345 1.345 0 0 0 .786-1.733l-.232-.395a1.36 1.36 0 0 0-.077-.085L11.906 10a.692.692 0 0 1-.976-.974l-.355-.354.314-.314.508.509a.222.222 0 0 1 0 .313l-.111.112a.248.248 0 1 0 .352.351l.111-.11a.222.222 0 0 1 .314 0l2.907 2.906m.011.012a.615.615 0 0 0-.011-.012m.011.012-.011-.012"/><path fill="#37352F" stroke="#37352F" stroke-linejoin="round" stroke-width=".4" d="m13.893 13.627-.266.266-1.877-1.878.265-.265 1.878 1.877Z"/></svg>
